remix/Buildings/store-3-line.svg

<svg viewBox="0 0 24 24" fill="currentColor" xmlns="http://www.w3.org/2000/svg"><path d="M21 13V20C21 20.5523 20.5523 21 20 21H4C3.44772 21 3 20.5523 3 20V13H2V11L3 6H21L22 11V13H21ZM5 13V19H19V13H5ZM4.03961 11H19.9604L19.3604 8H4.63961L4.03961 11ZM6 14H14V17H6V14ZM3 3H21V5H3V3Z"/></svg>

<svg viewBox="0 0 24 24" xmlns="http://www.w3.org/2000/svg"><path fill="none" d="M0 0h24v24H0Z"/><path d="M21 13v7 0c0 .55-.45 1-1 1H4v0c-.56 0-1-.45-1-1v-7H2v-2l1-5h18l1 5v2h-1ZM5 13v6h14v-6H5Zm-.96-2h15.92l-.6-3H4.64l-.6 3ZM6 14h8v3H6v-3ZM3 3h18v2H3V3Z"/></svg>
